X: 31156
T: Paddy Fahey's
R: reel
M: 4/4
K: Gmajor
|:dgdc BcAG|(3EFG AB cAFA|B3 G BdcA|BcAG FD D2|
dgdc BcAG|(3EFG AB c2 Bc|dg3 dgfd|cAFA G3 B:|
|:g3a gB3|gfga gfed|eaa^g aba=g|eaag ed (3Bcd|
g3a gB3|cBAG ABcA|dg3 dgfd|cAFA G2Bd:|

